www/assets/icons/file_open.svg

<svg width="24" height="24" viewBox="0 0 24 24" xmlns="http://www.w3.org/2000/svg" fill='currentColor'><path d="M12.3149 1.82007H4.31494C3.21494 1.82007 2.31494 2.72007 2.31494 3.82007V19.8201C2.31494 20.9201 3.20494 21.8201 4.30494 21.8201H13.3149V13.8201H18.3149V7.82007L12.3149 1.82007ZM11.3149 8.82007V3.32007L16.8149 8.82007H11.3149ZM15.3149 21.4801V15.8201H20.9749V17.8201H18.7349L21.6849 20.7701L20.2749 22.1801L17.3149 19.2301V21.4701H15.3149V21.4801Z"/></svg>

<svg xmlns="http://www.w3.org/2000/svg" width="24" height="24" viewBox="0 0 24 24" fill='currentColor'><path d="M12.315 1.82h-8c-1.1 0-2 .9-2 2v16c0 1.1.89 2 1.99 2h9.01v-8h5v-6zm-1 7v-5.5l5.5 5.5zm4 12.66v-5.66h5.66v2h-2.24l2.95 2.95-1.41 1.41-2.96-2.95v2.24h-2z"/></svg>
